; generated by Slic3r 1.34.1-prusa3d-win64 on 2017-09-02 at 10:12:21

; external perimeters extrusion width = 0.45mm
; perimeters extrusion width = 0.45mm
; infill extrusion width = 0.45mm
; solid infill extrusion width = 0.45mm
; top infill extrusion width = 0.40mm
; support material extrusion width = 0.35mm

M107
M115 U3.0.11 ; tell printer latest fw version
M83  ; extruder relative mode
M92 E171.6; CALIBRATE EXTRUDER 
M104 S240 ; set extruder temp
M140 S50 ; set bed temp
M190 S50 ; wait for bed temp
M109 S240 ; wait for extruder temp
G28 W ; home all without mesh bed level
G80 ; mesh bed leveling
G1 Y-3.0 F1000.0 ; go outside pritn area
G1 X60.0 E9.0  F1000.0 ; intro line
G1 X100.0 E12.5  F1000.0 ; intro line
G21 ; set units to millimeters
G90 ; use absolute coordinates
M83 ; use relative distances for extrusion
G1 E-0.90000 F2100.00000
G1 Z0.200 F7200.000
G1 X19.807 Y16.962 F7200.000
G1 E0.90000 F2100.00000
M204 S1000
G1 F1500
G1 X20.305 Y16.434 E0.02319
G1 X20.784 Y16.091 E0.01885
G1 X21.320 Y15.836 E0.01900
G1 X21.893 Y15.678 E0.01900
G1 X22.484 Y15.623 E0.01900
G1 X227.505 Y15.623 E6.55683
G1 X228.154 Y15.687 E0.02088
G1 X228.784 Y15.876 E0.02102
G1 X229.364 Y16.184 E0.02102
G1 X229.874 Y16.599 E0.02102
G1 X230.292 Y17.100 E0.02088
G1 X230.607 Y17.677 E0.02102
G1 X230.805 Y18.304 E0.02102
G1 X230.877 Y18.957 E0.02102
G1 X230.877 Y191.023 E5.50289
G1 X230.795 Y191.739 E0.02304
G1 X230.564 Y192.421 E0.02304
G1 X230.193 Y193.038 E0.02304
G1 X229.695 Y193.566 E0.02319
G1 X229.216 Y193.909 E0.01885
G1 X228.680 Y194.164 E0.01900
G1 X228.107 Y194.322 E0.01900
G1 X227.516 Y194.377 E0.01900
G1 X22.495 Y194.377 E6.55683
G1 X21.775 Y194.298 E0.02319
G1 X21.087 Y194.067 E0.02319
G1 X20.465 Y193.695 E0.02319
G1 X19.934 Y193.195 E0.02333
G1 X19.591 Y192.716 E0.01885
G1 X19.336 Y192.180 E0.01900
G1 X19.178 Y191.607 E0.01900
G1 X19.123 Y191.016 E0.01900
G1 X19.123 Y18.991 E5.50159
G1 X19.203 Y18.270 E0.02319
G1 X19.434 Y17.583 E0.02319
G1 X19.777 Y17.013 E0.02127
G1 F5760
G1 X20.305 Y16.434 E-0.27145
G1 F5760
G1 X20.784 Y16.091 E-0.20416
G1 F5760
G1 X21.320 Y15.836 E-0.20573
G1 F5760
G1 X21.804 Y15.702 E-0.17366
G1 E-0.04500 F2100.00000
G1 X125.549 Y106.985 F7200.000
G1 E0.90000 F2100.00000
G1 F1500
G1 X126.985 Y105.549 E0.06494
G1 X228.515 Y105.549 E3.24709
G1 X229.951 Y106.985 E0.06494
G1 X229.951 Y192.015 E2.71939
G1 X228.515 Y193.451 E0.06494
G1 X126.985 Y193.451 E3.24709
G1 X125.549 Y192.015 E0.06494
G1 X125.549 Y107.045 E2.71747
G1 X125.926 Y107.141 F7200.000
G1 F1500
G1 X127.141 Y105.926 E0.05495
G1 X228.359 Y105.926 E3.23710
G1 X229.574 Y107.141 E0.05495
G1 X229.574 Y191.859 E2.70940
G1 X228.359 Y193.074 E0.05495
G1 X127.141 Y193.074 E3.23710
G1 X125.926 Y191.859 E0.05495
G1 X125.926 Y107.201 E2.70748
G1 X126.303 Y107.297 F7200.000
G1 F1500
G1 X127.297 Y106.303 E0.04496
G1 X228.203 Y106.303 E3.22710
G1 X229.197 Y107.297 E0.04496
G1 X229.197 Y191.703 E2.69941
G1 X228.203 Y192.697 E0.04496
G1 X127.297 Y192.697 E3.22710
G1 X126.303 Y191.703 E0.04496
G1 X126.303 Y107.357 E2.69749
G1 X126.680 Y107.453 F7200.000
G1 F1500
G1 X127.453 Y106.680 E0.03497
G1 X228.047 Y106.680 E3.21711
G1 X228.820 Y107.453 E0.03497
G1 X228.820 Y191.547 E2.68942
G1 X228.047 Y192.320 E0.03497
G1 X127.453 Y192.320 E3.21711
G1 X126.680 Y191.547 E0.03497
G1 X126.680 Y107.513 E2.68750
G1 X127.057 Y107.610 F7200.000
G1 F1500
G1 X127.610 Y107.057 E0.02498
G1 X227.890 Y107.057 E3.20712
G1 X228.443 Y107.610 E0.02498
G1 X228.443 Y191.390 E2.67943
G1 X227.890 Y191.943 E0.02498
G1 X127.610 Y191.943 E3.20712
G1 X127.057 Y191.390 E0.02498
G1 X127.057 Y107.670 E2.67751
G1 X127.434 Y107.766 F7200.000
G1 F1500
G1 X127.766 Y107.434 E0.01499
G1 X227.734 Y107.434 E3.19713
G1 X228.066 Y107.766 E0.01499
G1 X228.066 Y191.234 E2.66944
G1 X227.734 Y191.566 E0.01499
G1 X127.766 Y191.566 E3.19713
G1 X127.434 Y191.234 E0.01499
G1 X127.434 Y107.826 E2.66752
G1 X127.811 Y107.922 F7200.000
G1 F1500
G1 X127.922 Y107.811 E0.00500
G1 X227.578 Y107.811 E3.18714
G1 X227.689 Y107.922 E0.00500
G1 X227.689 Y191.078 E2.65945
G1 X227.578 Y191.189 E0.00500
G1 X127.922 Y191.189 E3.18714
G1 X127.811 Y191.078 E0.00500
G1 X127.811 Y107.982 E2.65753
G1 F5760
G1 X127.922 Y107.811 E-0.07034
G1 F5760
G1 X130.187 Y107.811 E-0.78466
G1 E-0.04500 F2100.00000
G1 X126.985 Y104.451 F7200.000
G1 E0.90000 F2100.00000
G1 F1500
G1 X125.549 Y103.015 E0.06494
G1 X125.549 Y17.985 E2.71939
G1 X126.985 Y16.549 E0.06494
G1 X228.515 Y16.549 E3.24709
G1 X229.951 Y17.985 E0.06494
G1 X229.951 Y103.015 E2.71939
G1 X228.515 Y104.451 E0.06494
G1 X127.045 Y104.451 E3.24517
G1 X127.141 Y104.074 F7200.000
G1 F1500
G1 X125.926 Y102.859 E0.05495
G1 X125.926 Y18.141 E2.70940
G1 X127.141 Y16.926 E0.05495
G1 X228.359 Y16.926 E3.23710
G1 X229.574 Y18.141 E0.05495
G1 X229.574 Y102.859 E2.70940
G1 X228.359 Y104.074 E0.05495
G1 X127.201 Y104.074 E3.23518
G1 X127.297 Y103.697 F7200.000
G1 F1500
G1 X126.303 Y102.703 E0.04496
G1 X126.303 Y18.297 E2.69941
G1 X127.297 Y17.303 E0.04496
G1 X228.203 Y17.303 E3.22710
G1 X229.197 Y18.297 E0.04496
G1 X229.197 Y102.703 E2.69941
G1 X228.203 Y103.697 E0.04496
G1 X127.357 Y103.697 E3.22519
G1 X127.453 Y103.320 F7200.000
G1 F1500
G1 X126.680 Y102.547 E0.03497
G1 X126.680 Y18.453 E2.68942
G1 X127.453 Y17.680 E0.03497
G1 X228.047 Y17.680 E3.21711
G1 X228.820 Y18.453 E0.03497
G1 X228.820 Y102.547 E2.68942
G1 X228.047 Y103.320 E0.03497
G1 X127.513 Y103.320 E3.21520
G1 X127.610 Y102.943 F7200.000
G1 F1500
G1 X127.057 Y102.390 E0.02498
G1 X127.057 Y18.610 E2.67943
G1 X127.610 Y18.057 E0.02498
G1 X227.890 Y18.057 E3.20712
G1 X228.443 Y18.610 E0.02498
G1 X228.443 Y102.390 E2.67943
G1 X227.890 Y102.943 E0.02498
G1 X127.670 Y102.943 E3.20520
G1 X127.766 Y102.566 F7200.000
G1 F1500
G1 X127.434 Y102.234 E0.01499
G1 X127.434 Y18.766 E2.66944
G1 X127.766 Y18.434 E0.01499
G1 X227.734 Y18.434 E3.19713
G1 X228.066 Y18.766 E0.01499
G1 X228.066 Y102.234 E2.66944
G1 X227.734 Y102.566 E0.01499
G1 X127.826 Y102.566 E3.19521
G1 X127.922 Y102.189 F7200.000
G1 F1500
G1 X127.811 Y102.078 E0.00500
G1 X127.811 Y18.922 E2.65945
G1 X127.922 Y18.811 E0.00500
G1 X227.578 Y18.811 E3.18714
G1 X227.689 Y18.922 E0.00500
G1 X227.689 Y102.078 E2.65945
G1 X227.578 Y102.189 E0.00500
G1 X127.982 Y102.189 E3.18522
G1 F5760
G1 X127.811 Y102.078 E-0.07034
G1 F5760
G1 X127.811 Y99.813 E-0.78466
G1 E-0.04500 F2100.00000
G1 X124.451 Y103.015 F7200.000
G1 E0.90000 F2100.00000
G1 F1500
G1 X123.015 Y104.451 E0.06494
G1 X21.485 Y104.451 E3.24709
G1 X20.049 Y103.015 E0.06494
G1 X20.049 Y17.985 E2.71939
G1 X21.485 Y16.549 E0.06494
G1 X123.015 Y16.549 E3.24709
G1 X124.451 Y17.985 E0.06494
G1 X124.451 Y102.955 E2.71747
G1 X124.074 Y102.859 F7200.000
G1 F1500
G1 X122.859 Y104.074 E0.05495
G1 X21.641 Y104.074 E3.23710
G1 X20.426 Y102.859 E0.05495
G1 X20.426 Y18.141 E2.70940
G1 X21.641 Y16.926 E0.05495
G1 X122.859 Y16.926 E3.23710
G1 X124.074 Y18.141 E0.05495
G1 X124.074 Y102.799 E2.70748
G1 X123.697 Y102.703 F7200.000
G1 F1500
G1 X122.703 Y103.697 E0.04496
G1 X21.797 Y103.697 E3.22710
G1 X20.803 Y102.703 E0.04496
G1 X20.803 Y18.297 E2.69941
G1 X21.797 Y17.303 E0.04496
G1 X122.703 Y17.303 E3.22710
G1 X123.697 Y18.297 E0.04496
G1 X123.697 Y102.643 E2.69749
G1 X123.320 Y102.547 F7200.000
G1 F1500
G1 X122.547 Y103.320 E0.03497
G1 X21.953 Y103.320 E3.21711
G1 X21.180 Y102.547 E0.03497
G1 X21.180 Y18.453 E2.68942
G1 X21.953 Y17.680 E0.03497
G1 X122.547 Y17.680 E3.21711
G1 X123.320 Y18.453 E0.03497
G1 X123.320 Y102.487 E2.68750
G1 X122.943 Y102.390 F7200.000
G1 F1500
G1 X122.390 Y102.943 E0.02498
G1 X22.110 Y102.943 E3.20712
G1 X21.557 Y102.390 E0.02498
G1 X21.557 Y18.610 E2.67943
G1 X22.110 Y18.057 E0.02498
G1 X122.390 Y18.057 E3.20712
G1 X122.943 Y18.610 E0.02498
G1 X122.943 Y102.330 E2.67751
G1 X122.566 Y102.234 F7200.000
G1 F1500
G1 X122.234 Y102.566 E0.01499
G1 X22.266 Y102.566 E3.19713
G1 X21.934 Y102.234 E0.01499
G1 X21.934 Y18.766 E2.66944
G1 X22.266 Y18.434 E0.01499
G1 X122.234 Y18.434 E3.19713
G1 X122.566 Y18.766 E0.01499
G1 X122.566 Y102.174 E2.66752
G1 X122.189 Y102.078 F7200.000
G1 F1500
G1 X122.078 Y102.189 E0.00500
G1 X22.422 Y102.189 E3.18714
G1 X22.311 Y102.078 E0.00500
G1 X22.311 Y18.922 E2.65945
G1 X22.422 Y18.811 E0.00500
G1 X122.078 Y18.811 E3.18714
G1 X122.189 Y18.922 E0.00500
G1 X122.189 Y102.018 E2.65753
G1 F5760
G1 X122.078 Y102.189 E-0.07034
G1 F5760
G1 X119.813 Y102.189 E-0.78466
G1 E-0.04500 F2100.00000
G1 X123.015 Y105.549 F7200.000
G1 E0.90000 F2100.00000
G1 F1500
G1 X124.451 Y106.985 E0.06494
G1 X124.451 Y192.015 E2.71939
G1 X123.015 Y193.451 E0.06494
G1 X21.485 Y193.451 E3.24709
G1 X20.049 Y192.015 E0.06494
G1 X20.049 Y106.985 E2.71939
G1 X21.485 Y105.549 E0.06494
G1 X122.955 Y105.549 E3.24517
G1 X122.859 Y105.926 F7200.000
G1 F1500
G1 X124.074 Y107.141 E0.05495
G1 X124.074 Y191.859 E2.70940
G1 X122.859 Y193.074 E0.05495
G1 X21.641 Y193.074 E3.23710
G1 X20.426 Y191.859 E0.05495
G1 X20.426 Y107.141 E2.70940
G1 X21.641 Y105.926 E0.05495
G1 X122.799 Y105.926 E3.23518
G1 X122.703 Y106.303 F7200.000
G1 F1500
G1 X123.697 Y107.297 E0.04496
G1 X123.697 Y191.703 E2.69941
G1 X122.703 Y192.697 E0.04496
G1 X21.797 Y192.697 E3.22710
G1 X20.803 Y191.703 E0.04496
G1 X20.803 Y107.297 E2.69941
G1 X21.797 Y106.303 E0.04496
G1 X122.643 Y106.303 E3.22519
G1 X122.547 Y106.680 F7200.000
G1 F1500
G1 X123.320 Y107.453 E0.03497
G1 X123.320 Y191.547 E2.68942
G1 X122.547 Y192.320 E0.03497
G1 X21.953 Y192.320 E3.21711
G1 X21.180 Y191.547 E0.03497
G1 X21.180 Y107.453 E2.68942
G1 X21.953 Y106.680 E0.03497
G1 X122.487 Y106.680 E3.21520
G1 X122.390 Y107.057 F7200.000
G1 F1500
G1 X122.943 Y107.610 E0.02498
G1 X122.943 Y191.390 E2.67943
G1 X122.390 Y191.943 E0.02498
G1 X22.110 Y191.943 E3.20712
G1 X21.557 Y191.390 E0.02498
G1 X21.557 Y107.610 E2.67943
G1 X22.110 Y107.057 E0.02498
G1 X122.330 Y107.057 E3.20520
G1 X122.234 Y107.434 F7200.000
G1 F1500
G1 X122.566 Y107.766 E0.01499
G1 X122.566 Y191.234 E2.66944
G1 X122.234 Y191.566 E0.01499
G1 X22.266 Y191.566 E3.19713
G1 X21.934 Y191.234 E0.01499
G1 X21.934 Y107.766 E2.66944
G1 X22.266 Y107.434 E0.01499
G1 X122.174 Y107.434 E3.19521
G1 X122.078 Y107.811 F7200.000
G1 F1500
G1 X122.189 Y107.922 E0.00500
G1 X122.189 Y191.078 E2.65945
G1 X122.078 Y191.189 E0.00500
G1 X22.422 Y191.189 E3.18714
G1 X22.311 Y191.078 E0.00500
G1 X22.311 Y107.922 E2.65945
G1 X22.422 Y107.811 E0.00500
G1 X122.018 Y107.811 E3.18522
G1 F5760
G1 X122.189 Y107.922 E-0.07034
G1 F5760
G1 X122.189 Y110.187 E-0.78466
G1 E-0.04500 F2100.00000
G1 X121.790 Y101.790 F7200.000
G1 E0.90000 F2100.00000
G1 F900
G1 X22.710 Y101.790 E3.16872
G1 X22.710 Y19.210 E2.64102
G1 X121.790 Y19.210 E3.16872
G1 X121.790 Y101.730 E2.63910
G1 X121.401 Y101.698 F7200.000
G1 X121.413 Y101.413 F7200.000
G1 F1200
G1 X23.087 Y101.413 E3.14460
G1 X23.087 Y19.587 E2.61690
G1 X121.413 Y19.587 E3.14460
G1 X121.413 Y101.353 E2.61498
G1 X121.036 Y101.036 F7200.000
G1 F1200
G1 X115.971 Y101.036 E0.16197
G1 X116.320 Y100.896 E0.01204
G1 X116.805 Y100.589 E0.01835
G1 X117.179 Y100.240 E0.01634
G1 X117.484 Y99.840 E0.01609
G1 X117.714 Y99.399 E0.01591
G1 X117.848 Y98.997 E0.01356
G1 X117.929 Y98.573 E0.01381
G1 X117.936 Y97.998 E0.01836
G1 X117.831 Y97.428 E0.01854
G1 X117.647 Y96.952 E0.01634
G1 X117.389 Y96.520 E0.01609
G1 X117.062 Y96.137 E0.01609
G1 X116.675 Y95.816 E0.01609
G1 X116.244 Y95.567 E0.01591
G1 X115.835 Y95.411 E0.01401
G1 X115.280 Y95.299 E0.01808
G1 X114.770 Y95.291 E0.01634
G1 X114.278 Y95.369 E0.01591
G1 X113.875 Y95.500 E0.01356
G1 X113.493 Y95.684 E0.01356
G1 X113.085 Y95.968 E0.01591
G1 X112.721 Y96.327 E0.01634
G1 X112.399 Y96.792 E0.01808
G1 X112.208 Y97.195 E0.01427
G1 X112.056 Y97.749 E0.01836
G1 X112.015 Y98.321 E0.01836
G1 X112.059 Y98.751 E0.01381
G1 X112.160 Y99.171 E0.01381
G1 X112.390 Y99.697 E0.01836
G1 X112.721 Y100.173 E0.01854
G1 X113.085 Y100.532 E0.01634
G1 X113.498 Y100.819 E0.01609
G1 X113.965 Y101.036 E0.01647
G1 X30.525 Y101.036 E2.66853
G1 X30.930 Y100.859 E0.01415
G1 X31.346 Y100.586 E0.01591
G1 X31.660 Y100.301 E0.01356
G1 X31.932 Y99.976 E0.01356
G1 X32.194 Y99.537 E0.01636
G1 X32.409 Y98.929 E0.02061
G1 X32.481 Y98.417 E0.01653
G1 X32.467 Y97.914 E0.01609
G1 X32.368 Y97.421 E0.01609
G1 X32.187 Y96.952 E0.01609
G1 X31.929 Y96.520 E0.01609
G1 X31.605 Y96.142 E0.01591
G1 X31.272 Y95.858 E0.01401
G1 X30.787 Y95.567 E0.01808
G1 X30.307 Y95.390 E0.01634
G1 X29.813 Y95.298 E0.01609
G1 X29.310 Y95.291 E0.01609
G1 X28.818 Y95.369 E0.01591
G1 X28.415 Y95.500 E0.01356
G1 X28.033 Y95.684 E0.01356
G1 X27.613 Y95.976 E0.01636
G1 X27.167 Y96.442 E0.02061
G1 X26.890 Y96.878 E0.01653
G1 X26.696 Y97.342 E0.01609
G1 X26.585 Y97.827 E0.01591
G1 X26.556 Y98.250 E0.01356
G1 X26.585 Y98.673 E0.01356
G1 X26.698 Y99.166 E0.01617
G1 X26.930 Y99.697 E0.01854
G1 X27.261 Y100.173 E0.01854
G1 X27.625 Y100.532 E0.01634
G1 X28.033 Y100.816 E0.01591
G1 X28.524 Y101.036 E0.01721
G1 X23.464 Y101.036 E0.16184
G1 X23.464 Y19.964 E2.59278
G1 X28.533 Y19.964 E0.16209
G1 X28.336 Y20.031 E0.00664
G1 X27.906 Y20.263 E0.01565
G1 X27.615 Y20.478 E0.01156
G1 X27.267 Y20.821 E0.01565
G1 X26.965 Y21.241 E0.01653
G1 X26.699 Y21.829 E0.02061
G1 X26.587 Y22.319 E0.01609
G1 X26.556 Y22.679 E0.01156
G1 X26.583 Y23.168 E0.01565
G1 X26.699 Y23.671 E0.01653
G1 X26.965 Y24.259 E0.02061
G1 X27.267 Y24.679 E0.01653
G1 X27.625 Y25.032 E0.01609
G1 X28.038 Y25.319 E0.01609
G1 X28.493 Y25.533 E0.01609
G1 X28.965 Y25.662 E0.01565
G1 X29.323 Y25.708 E0.01156
G1 X29.813 Y25.702 E0.01565
G1 X30.307 Y25.610 E0.01609
G1 X30.792 Y25.431 E0.01653
G1 X31.341 Y25.093 E0.02061
G1 X31.719 Y24.740 E0.01653
G1 X32.015 Y24.351 E0.01565
G1 X32.192 Y24.036 E0.01156
G1 X32.368 Y23.579 E0.01565
G1 X32.464 Y23.103 E0.01554
G1 X32.486 Y22.750 E0.01130
G1 X32.464 Y22.397 E0.01130
G1 X32.368 Y21.921 E0.01554
G1 X32.187 Y21.452 E0.01609
G1 X31.929 Y21.020 E0.01609
G1 X31.605 Y20.642 E0.01591
G1 X31.272 Y20.358 E0.01401
G1 X30.787 Y20.067 E0.01808
G1 X30.507 Y19.964 E0.00952
G1 X113.993 Y19.964 E2.66998
G1 X113.796 Y20.031 E0.00664
G1 X113.353 Y20.270 E0.01609
G1 X112.969 Y20.572 E0.01565
G1 X112.718 Y20.833 E0.01156
G1 X112.433 Y21.230 E0.01565
G1 X112.209 Y21.690 E0.01634
G1 X112.056 Y22.249 E0.01854
G1 X112.014 Y22.827 E0.01854
G1 X112.072 Y23.329 E0.01617
G1 X112.185 Y23.737 E0.01356
G1 X112.353 Y24.127 E0.01356
G1 X112.624 Y24.553 E0.01617
G1 X113.020 Y24.977 E0.01854
G1 X113.491 Y25.316 E0.01854
G1 X113.953 Y25.533 E0.01634
G1 X114.433 Y25.665 E0.01591
G1 X114.854 Y25.711 E0.01356
G1 X115.286 Y25.700 E0.01381
G1 X115.835 Y25.589 E0.01791
G1 X116.257 Y25.428 E0.01446
G1 X116.801 Y25.093 E0.02044
G1 X117.179 Y24.740 E0.01653
G1 X117.475 Y24.351 E0.01565
G1 X117.652 Y24.036 E0.01156
G1 X117.828 Y23.579 E0.01565
G1 X117.929 Y23.078 E0.01634
G1 X117.936 Y22.498 E0.01854
G1 X117.831 Y21.928 E0.01854
G1 X117.647 Y21.452 E0.01634
G1 X117.389 Y21.020 E0.01609
G1 X117.062 Y20.637 E0.01609
G1 X116.675 Y20.316 E0.01609
G1 X116.244 Y20.067 E0.01591
G1 X115.974 Y19.964 E0.00924
G1 X121.036 Y19.964 E0.16188
G1 X121.036 Y100.976 E2.59087
G1 F5760
G1 X118.567 Y101.005 E-0.85500
G1 E-0.04500 F2100.00000
G1 X108.316 Y55.435 F7200.000
G1 E0.90000 F2100.00000
G1 F900
G1 X107.456 Y55.641 E0.02828
G1 X106.583 Y55.710 E0.02802
G1 X93.969 Y55.710 E0.40341
G1 X93.273 Y55.651 E0.02235
G1 X92.587 Y55.474 E0.02264
G1 X91.941 Y55.185 E0.02264
G1 X91.353 Y54.792 E0.02264
G1 X90.838 Y54.306 E0.02264
G1 X90.413 Y53.740 E0.02264
G1 X90.087 Y53.110 E0.02268
G1 X89.866 Y52.388 E0.02416
G1 X89.774 Y51.736 E0.02106
G1 X89.794 Y51.029 E0.02264
G1 X89.932 Y50.334 E0.02264
G1 X90.184 Y49.673 E0.02264
G1 X90.544 Y49.063 E0.02264
G1 X90.995 Y48.529 E0.02235
G1 X105.029 Y34.495 E0.63476
G1 X105.563 Y34.044 E0.02235
G1 X106.173 Y33.684 E0.02264
G1 X106.835 Y33.431 E0.02268
G1 X107.578 Y33.292 E0.02416
G1 X108.236 Y33.274 E0.02106
G1 X108.937 Y33.373 E0.02264
G1 X109.611 Y33.588 E0.02264
G1 X110.240 Y33.913 E0.02264
G1 X110.806 Y34.338 E0.02264
G1 X111.292 Y34.853 E0.02264
G1 X111.685 Y35.441 E0.02264
G1 X111.974 Y36.087 E0.02264
G1 X112.151 Y36.773 E0.02264
G1 X112.210 Y37.469 E0.02235
G1 X112.210 Y50.083 E0.40341
